modules/entypo/icons/chart-bar.svg

<svg height="1000px" width="800px" xmlns="http://www.w3.org/2000/svg">
  <g>
    <path d="M750 50c14.667 0 26.667 5 36 15c9.333 10 14 21.667 14 35c0 0 0 850 0 850c0 0 -200 0 -200 0c0 0 0 -850 0 -850c0 -33.333 13.333 -50 40 -50c0 0 110 0 110 0c0 0 0 0 0 0m-300 300c14.667 0 26.667 5 36 15c9.333 10 14 21.667 14 35c0 0 0 550 0 550c0 0 -200 0 -200 0c0 0 0 -550 0 -550c0 -33.333 13.333 -50 40 -50c0 0 110 0 110 0c0 0 0 0 0 0m-300 300c14.667 0 26.667 5 36 15c9.333 10 14 21.667 14 35c0 0 0 250 0 250c0 0 -200 0 -200 0c0 0 0 -250 0 -250c0 -33.333 13.333 -50 40 -50c0 0 110 0 110 0c0 0 0 0 0 0" />
  </g>
</svg>

<svg height="1000" width="800" xmlns="http://www.w3.org/2000/svg"><path d="M750 50c14.667 0 26.667 5 36 15 9.333 10 14 21.667 14 35v850H600V100c0-33.333 13.333-50 40-50h110M450 350c14.667 0 26.667 5 36 15 9.333 10 14 21.667 14 35v550H300V400c0-33.333 13.333-50 40-50h110M150 650c14.667 0 26.667 5 36 15 9.333 10 14 21.667 14 35v250H0V700c0-33.333 13.333-50 40-50h110"/></svg>
